X:1
T:Reason Living - Bungou Stray Dogs OP 2
T:Reason Living - Bungou Stray Dogs OP 2
T:Translated by: Zaina K.
T:SCREEN mode
C:SCREEN mode
L:1/8
Q:1/4=187
M:4/4
K:Eb
V:1 treble nm="Flute" snm="Fl."
V:1
"^Presto" z2 z e/d/ B<F- F2- | F4- F g3- | g2 d4 B2- | B3 e- e3 f- | f6- fG/c/4d/4 | g8- | g8 | %7
 g8- | g4 bb z e | f3 e g3 e | f3 e g3 e | f2 ff- f g2 g | a2 g2 f2 ee | f3 e g3 e | %14
 f2 ff- f g2 g | b2 de e2 dd | dBce e3 e | f3 e g3 e | f2 ff- f g2 a | g6 gB/e/4f/4 | g6 b2 | %21
 B6- Bf/e/ | cc/d/ e/d/e/f/ g/f/g/a/ b/c'/d'/e'/ | e2 ee e d2 B- | Bc c2 z Bce- | eeee e f2 g- | %26
 g f2 e- e d2 G- | G F2 E- E D2 g- | g f2 e- e d3 | e2 ee e d2 B- | Bc c2 z Bce- | eeee e f2 g- | %32
 g f2 e- e f3 | E2 z c b3 d | e4 z def- | feee d>e- eg- | gagf- f2 z2 | z4 e2 e2 | b4 e2 ed- | %39
 dc e2- e3 b- | b2 B2 a/g/f/e/ d/c/B/A/ | z2 z A e2 e2 | b4 f2 ed- | dc c2- c3 b | %44
 b2 e2 a/g/f/e/ d/c/B/A/ | z2 z A e2 e2 | d2 ef- f2 z e | f3 e g3 e | f3 e g3 e | f2 ff- f g2 g | %50
 a2 g2 f2 e2 | f3 e g3 e | f2 ff- f g2 g | b2 de e2 dd | dBce e3 e | f3 e g3 e | f3 e g3 e | %57
 ffff- f g2 g | a2 g2 f2 e2 | f3 e g3 e | f2 ff- f g2 a | gc z B c2 Bc | z B c2 cdfg | %63
 bc'c'b c'2 ga | g8 | g8 | g8 | g8 |] %68

